images/holmes_logo.svg

<?xml version="1.0" encoding="UTF-8" standalone="yes"?><svg xmlns="http://www.w3.org/2000/svg" version="1.1" xmlns:xlink="http://www.w3.org/1999/xlink" viewBox="0 0 84 99"><g fill="none" fill-rule="evenodd"><path fill="#000" fill-opacity=".05" d="M79.5 68.3c-4.8-.3-4.4 1.6-4.4 1.6l.2 4.6s0 2.4-1.4 2.3c-1.4-.1-1.8-2.8-1.8-2.8L71 69.4c0-.1.1-.3.1-.4.1-.3.1-.7 0-1-.1-.7-.2-1.5-.7-2.1 0 0-.8-.5-.8-.4-.5-3.4-2.2-6.8-5.7-7.8-.2-.1-2.5-.5-3.6-.7.1-.3.3-.6.4-.9.3-1.2-.4-2.3-.8-3.3-.3-1-.2-1.9 1-2 1.1-.1 3.1 1 3.7.8.7-.1 1.5-.7 1.5-1.5s-1.2-2.5-1.2-2.5-1.6-3.2-2.1-4.6c-.5-1.4-2.3-2.7-2.3-2.7s-1.8-1.3-1.6-2.2c.2-.9.9-1.2 1.2-2.1 1 .1 2.1.4 2.9.5 2.9.4 6.7 1.2 9 .7 0 0 1.2-.1 0-1s-4.1-3.7-5-4.7c-.9-1-4.1-3.1-4.7-4.4-1.9-3.9-2.4-8.6-5.6-11.9-2.3-2.4-5.2-4.3-8.2-5.6 1.1.2 2.2.3 3.3.3h.4V9c-2.8.1-6-.6-8.3-1.2.5 0 1-.1 1.6-.3 1-.3 2.9-1.1 2.5-2.5-.5-1.9-3.8-1.3-5.1-1.1-2.5.4-4.8 1.6-7 2.8-.3-.4-.8-.5-1.4-.4-.4.1-.7.3-.9.5-.4-.2-1.7-.7-4.9-.7-2 0-8.9 2.1-5.3 4.4-1.5.4-3.2.8-4.4.9l.1.9c.7-.1 1.5-.2 2.4-.4-2.5 1.5-4.7 3.4-6.6 5.6-2 2.3-3.1 5.4-3.5 8.3-.5 3.6.5 7.2.3 10.8-.2 1.9-1.2 2.8-2.2 4.3-1 1.5-1.4 3.2-2.4 4.7C6.3 47 5 48 3.9 49.2c-.4.4-.3.7 0 .8h.4c.8-.1 1.5-.5 2.2-.7 1.1-.3 2.2-.6 3.2-1 .7-.3 3-1 5.4-1.9.1.9.2 1.9.4 2.5.4 1.2 2.3 3.4 2.3 3.4s1.8 1.6 1.9 3.7c0 1.1-.3 2-.7 2.6-.6-.4-2.2-1-3.6.8-1.8 2.3-2.5 4.4-3.4 5.6-.9 1.2-3 3.6-3.2 4.7-.2 1.1.8 2.3.8 2.3L3.9 82.3s2.5 2.9 8.6 3.3c6.1.4 6.5-1.3 14.3.8 7.8 2.1 12.2 13.9 27.5 12 0 0-2-6.2-4.5-9.9s-5.4-7.8-5.4-7.8c.2-1.1 1.4-4.6.6-5.4-.5-.5-1-.9-1.5-1.4.4-.9.9-1.8.9-2.8 0-.9-.4-2-.1-2.9.2-.6.8-1 1.4-1 .8 0 1.3.7 2.1.9.8.2 2.1.1 2.9.1.9 0 1.7.7 2.5.9 2.1.7 4.4.4 5.9-1.3 1.6-1.8.3-3.6.3-3.6s-1.2-1.5-1.2-2.4c0-.9.7-1.6.7-1.6v-.1h.3c.7 0 1.3-.5 1.3-1 0-.2 0-.3-.1-.4.5.1 1.2.2 1.3.2.8.2 1.5.4 2.2.8 1.4.8 2.3 2.2 2.7 3.7.1.5.7 2.2.3 2.6-.3.3-.4 1.1-.4 1.5 0 .8.3 1.7.8 2.3.1.2.6.5.7.7 1.2 5.1 1.6 11.1 8.3 11.6 2.8.2 4.4-1.3 4.4-1.3s1.8-1.1 2.4-4.1c.6-3 .7-6.5.7-6.5s.5-1.7-4.3-1.9zM37.6 7.4h-1.1v-.1c.2.1.6.1 1.1.1zm-7.5.5c.3-.1 2.5-.4 3.4-.4v.2c-.3 0-.7.1-1 .1-1.6.2-3.3.6-4.9 1.2.8-.5 1.6-1 2.5-1.1zm-5.5.3c1.6-.8 2.9-.9 4.7-1.1-1.4.1-3.1 2.5-4.6 2-.4-.2-.6-.6-.1-.9zM41 7.6h.4-.4zm1.1-1.1c-.8-.1-2.2-.5-3-.2 1.3-.4 2.5-.9 3.8-1.2.7-.1 1.4-.2 2.1-.1 1 .2 1.1.9.2 1.4h-.1c-.9.5-2 .2-3 .1z"/><path fill="#EDEDED" d="M78.5 67.3c-4.8-.3-4.4 1.6-4.4 1.6l.2 4.6s0 2.4-1.4 2.3c-1.4-.1-1.8-2.8-1.8-2.8L70 68.4c0-.1.1-.3.1-.4.1-.3.1-.7 0-1-.1-.7-.2-1.5-.7-2.1 0 0-.8-.5-.8-.4-.5-3.4-2.2-6.8-5.7-7.8-.2-.1-2.5-.5-3.6-.7.1-.3.3-.6.4-.9.3-1.2-.4-2.3-.8-3.3-.3-1-.2-1.9 1-2 1.1-.1 3.1 1 3.7.8.7-.1 1.5-.7 1.5-1.5s-1.2-2.5-1.2-2.5-1.6-3.2-2.1-4.6c-.5-1.4-2.3-2.7-2.3-2.7s-1.8-1.3-1.6-2.2c.2-.9.9-1.2 1.2-2.1 1 .1 2.1.4 2.9.5 2.9.4 6.7 1.2 9 .7 0 0 1.2-.1 0-1s-4.1-3.7-5-4.7c-.9-1-4.1-3.1-4.7-4.4-1.9-3.9-2.4-8.6-5.6-11.9-2.3-2.4-5.2-4.3-8.2-5.6 1.1.2 2.2.3 3.3.3h.4V8c-2.8.1-6-.6-8.3-1.2.5 0 1-.1 1.6-.3 1-.3 2.9-1.1 2.5-2.5-.5-1.9-3.8-1.3-5.1-1.1-2.5.4-4.8 1.6-7 2.8-.3-.4-.8-.5-1.4-.4-.4.1-.7.3-.9.5-.4-.2-1.7-.7-4.9-.7-2 0-8.9 2.1-5.3 4.4-1.5.4-3.2.8-4.4.9l.1.9c.7-.1 1.5-.2 2.4-.4-2.5 1.5-4.7 3.4-6.6 5.6-2 2.3-3.1 5.4-3.5 8.3-.5 3.6.5 7.2.3 10.8-.2 1.9-1.2 2.8-2.2 4.3-1 1.5-1.4 3.2-2.4 4.7C5.3 46 4 47 2.9 48.2c-.4.4-.3.7 0 .8h.4c.8-.1 1.5-.5 2.2-.7 1.1-.3 2.2-.6 3.2-1 .7-.3 3-1 5.4-1.9.1.9.2 1.9.4 2.5.4 1.2 2.3 3.4 2.3 3.4s1.8 1.6 1.9 3.7c0 1.1-.3 2-.7 2.6-.6-.4-2.2-1-3.6.8-1.8 2.3-2.5 4.4-3.4 5.6-.9 1.2-3 3.6-3.2 4.7-.2 1.1.8 2.3.8 2.3L2.9 81.3s2.5 2.9 8.6 3.3c6.1.4 6.5-1.3 14.3.8 7.8 2.1 12.2 13.9 27.5 12 0 0-2-6.2-4.5-9.9s-5.4-7.8-5.4-7.8c.2-1.1 1.4-4.6.6-5.4-.5-.5-1-.9-1.5-1.4.4-.9.9-1.8.9-2.8 0-.9-.4-2-.1-2.9.2-.6.8-1 1.4-1 .8 0 1.3.7 2.1.9.8.2 2.1.1 2.9.1.9 0 1.7.7 2.5.9 2.1.7 4.4.4 5.9-1.3 1.6-1.8.3-3.6.3-3.6s-1.2-1.5-1.2-2.4c0-.9.7-1.6.7-1.6v-.1h.3c.7 0 1.3-.5 1.3-1 0-.2 0-.3-.1-.4.5.1 1.2.2 1.3.2.8.2 1.5.4 2.2.8 1.4.8 2.3 2.2 2.7 3.7.1.5.7 2.2.3 2.6-.3.3-.4 1.1-.4 1.5 0 .8.3 1.7.8 2.3.1.2.6.5.7.7 1.2 5.1 1.6 11.1 8.3 11.6 2.8.2 4.4-1.3 4.4-1.3s1.8-1.1 2.4-4.1c.6-3 .7-6.5.7-6.5s.5-1.7-4.3-1.9zM36.6 6.4h-1.1v-.1c.2.1.6.1 1.1.1zm-7.5.5c.3-.1 2.5-.4 3.4-.4v.2c-.3 0-.7.1-1 .1-1.6.2-3.3.6-4.9 1.2.8-.5 1.6-1 2.5-1.1zm-5.5.3c1.6-.8 2.9-.9 4.7-1.1-1.4.1-3.1 2.5-4.6 2-.4-.2-.6-.6-.1-.9zM40 6.6h.4-.4zm1.1-1.1c-.8-.1-2.2-.5-3-.2 1.3-.4 2.5-.9 3.8-1.2.7-.1 1.4-.2 2.1-.1 1 .2 1.1.9.2 1.4h-.1c-.9.5-2 .2-3 .1z"/><path fill="#000" d="M76.5 65.3c-4.8-.3-4.4 1.6-4.4 1.6l.2 4.6s0 2.4-1.4 2.3c-1.4-.1-1.8-2.8-1.8-2.8L68 66.4c0-.1.1-.3.1-.4.1-.3.1-.7 0-1-.1-.7-.2-1.5-.7-2.1 0 0-.8-.5-.8-.4-.5-3.4-2.2-6.8-5.7-7.8-.2-.1-2.5-.5-3.6-.7.1-.3.3-.6.4-.9.3-1.2-.4-2.3-.8-3.3-.3-1-.2-1.9 1-2 1.1-.1 3.1 1 3.7.8.7-.1 1.5-.7 1.5-1.5s-1.2-2.5-1.2-2.5-1.6-3.2-2.1-4.6c-.5-1.4-2.3-2.7-2.3-2.7s-1.8-1.3-1.6-2.2c.2-.9.9-1.2 1.2-2.1 1 .1 2.1.4 2.9.5 2.9.4 6.7 1.2 9 .7 0 0 1.2-.1 0-1s-4.1-3.7-5-4.7c-.9-1-4.1-3.1-4.7-4.4-1.9-3.9-2.4-8.6-5.6-11.9-2.3-2.4-5.2-4.3-8.2-5.6 1.1.2 2.2.3 3.3.3h.4V6c-2.8.1-6-.6-8.3-1.2.5 0 1-.1 1.6-.3 1-.3 2.9-1.1 2.5-2.5C44.5.1 41.2.7 39.9.9c-2.5.4-4.8 1.6-7 2.8-.3-.4-.8-.5-1.4-.4-.4.1-.7.3-.9.5-.4-.2-1.7-.7-4.9-.7-2 0-8.9 2.1-5.3 4.4-1.5.4-3.2.8-4.4.9l.1.9c.7-.1 1.5-.2 2.4-.4-2.5 1.5-4.7 3.4-6.6 5.6-2 2.3-3.1 5.4-3.5 8.3-.5 3.6.5 7.2.3 10.8-.2 1.9-1.2 2.8-2.2 4.3-1 1.5-1.4 3.2-2.4 4.7C3.3 44 2 45 .9 46.2c-.4.4-.3.7 0 .8h.4c.8-.1 1.5-.5 2.2-.7 1.1-.3 2.2-.6 3.2-1 .7-.3 3-1 5.4-1.9.1.9.2 1.9.4 2.5.4 1.2 2.3 3.4 2.3 3.4s1.8 1.6 1.9 3.7c0 1.1-.3 2-.7 2.6-.6-.4-2.2-1-3.6.8-1.8 2.3-2.5 4.4-3.4 5.6-.9 1.2-3 3.6-3.2 4.7-.2 1.1.8 2.3.8 2.3L.9 79.3s2.5 2.9 8.6 3.3c6.1.4 6.5-1.3 14.3.8 7.8 2.1 12.2 13.9 27.5 12 0 0-2-6.2-4.5-9.9s-5.4-7.8-5.4-7.8c.2-1.1 1.4-4.6.6-5.4-.5-.5-1-.9-1.5-1.4.4-.9.9-1.8.9-2.8 0-.9-.4-2-.1-2.9.2-.6.8-1 1.4-1 .8 0 1.3.7 2.1.9.8.2 2.1.1 2.9.1.9 0 1.7.7 2.5.9 2.1.7 4.4.4 5.9-1.3 1.6-1.8.3-3.6.3-3.6s-1.2-1.5-1.2-2.4c0-.9.7-1.6.7-1.6v-.1h.3c.7 0 1.3-.5 1.3-1 0-.2 0-.3-.1-.4.5.1 1.2.2 1.3.2.8.2 1.5.4 2.2.8 1.4.8 2.3 2.2 2.7 3.7.1.5.7 2.2.3 2.6-.3.3-.4 1.1-.4 1.5 0 .8.3 1.7.8 2.3.1.2.6.5.7.7 1.2 5.1 1.6 11.1 8.3 11.6 2.8.2 4.4-1.3 4.4-1.3s1.8-1.1 2.4-4.1c.6-3 .7-6.5.7-6.5s.5-1.7-4.3-1.9zM34.6 4.4h-1.1v-.1c.2.1.6.1 1.1.1zm-7.5.5c.3-.1 2.5-.4 3.4-.4v.2c-.3 0-.7.1-1 .1-1.6.2-3.3.6-4.9 1.2.8-.5 1.6-1 2.5-1.1zm-5.5.3c1.6-.8 2.9-.9 4.7-1.1-1.4.1-3.1 2.5-4.6 2-.4-.2-.6-.6-.1-.9zM38 4.6h.4-.4zm1.1-1.1c-.8-.1-2.2-.5-3-.2 1.3-.4 2.5-.9 3.8-1.2.7-.1 1.4-.2 2.1-.1 1 .2 1.1.9.2 1.4h-.1c-.9.5-2 .2-3 .1z"/></g></svg>

<?xml version="1.0" encoding="UTF-8" standalone="no"?>
<svg width="84px" height="99px" viewBox="0 0 84 99" version="1.1" xmlns="http://www.w3.org/2000/svg" xmlns:xlink="http://www.w3.org/1999/xlink">
    <!-- Generator: Sketch 3.8.2 (29753) - http://www.bohemiancoding.com/sketch -->
    <title>Group</title>
    <desc>Created with Sketch.</desc>
    <defs></defs>
    <g id="Page-1" stroke="none" stroke-width="1" fill="none" fill-rule="evenodd">
        <g id="noun_221829_cc" transform="translate(-9.000000, 0.000000)">
            <g id="Group" transform="translate(9.000000, 0.000000)">
                <path d="M79.5,68.3 C74.7,68 75.1,69.9 75.1,69.9 L75.3,74.5 C75.3,74.5 75.3,76.9 73.9,76.8 C72.5,76.7 72.1,74 72.1,74 L71,69.4 C71,69.3 71.1,69.1 71.1,69 C71.2,68.7 71.2,68.3 71.1,68 C71,67.3 70.9,66.5 70.4,65.9 C70.4,65.9 69.6,65.4 69.6,65.5 C69.1,62.1 67.4,58.7 63.9,57.7 C63.7,57.6 61.4,57.2 60.3,57 C60.4,56.7 60.6,56.4 60.7,56.1 C61,54.9 60.3,53.8 59.9,52.8 C59.6,51.8 59.7,50.9 60.9,50.8 C62,50.7 64,51.8 64.6,51.6 C65.3,51.5 66.1,50.9 66.1,50.1 C66.1,49.3 64.9,47.6 64.9,47.6 C64.9,47.6 63.3,44.4 62.8,43 C62.3,41.6 60.5,40.3 60.5,40.3 C60.5,40.3 58.7,39 58.9,38.1 C59.1,37.2 59.8,36.9 60.1,36 C61.1,36.1 62.2,36.4 63,36.5 C65.9,36.9 69.7,37.7 72,37.2 C72,37.2 73.2,37.1 72,36.2 C70.8,35.3 67.9,32.5 67,31.5 C66.1,30.5 62.9,28.4 62.3,27.1 C60.4,23.2 59.9,18.5 56.7,15.2 C54.4,12.8 51.5,10.9 48.5,9.6 C49.6,9.8 50.7,9.9 51.8,9.9 L52.2,9.9 L52.2,9 C49.4,9.1 46.2,8.4 43.9,7.8 C44.4,7.8 44.9,7.7 45.5,7.5 C46.5,7.2 48.4,6.4 48,5 C47.5,3.1 44.2,3.7 42.9,3.9 C40.4,4.3 38.1,5.5 35.9,6.7 C35.6,6.3 35.1,6.2 34.5,6.3 C34.1,6.4 33.8,6.6 33.6,6.8 C33.2,6.6 31.9,6.1 28.7,6.1 C26.7,6.1 19.8,8.2 23.4,10.5 C21.9,10.9 20.2,11.3 19,11.4 L19.1,12.3 C19.8,12.2 20.6,12.1 21.5,11.9 C19,13.4 16.8,15.3 14.9,17.5 C12.9,19.8 11.8,22.9 11.4,25.8 C10.9,29.4 11.9,33 11.7,36.6 C11.5,38.5 10.5,39.4 9.5,40.9 C8.5,42.4 8.1,44.1 7.1,45.6 C6.3,47 5,48 3.9,49.2 C3.5,49.6 3.6,49.9 3.9,50 L4.3,50 C5.1,49.9 5.8,49.5 6.5,49.3 C7.6,49 8.7,48.7 9.7,48.3 C10.4,48 12.7,47.3 15.1,46.4 C15.2,47.3 15.3,48.3 15.5,48.9 C15.9,50.1 17.8,52.3 17.8,52.3 C17.8,52.3 19.6,53.9 19.7,56 C19.7,57.1 19.4,58 19,58.6 C18.4,58.2 16.8,57.6 15.4,59.4 C13.6,61.7 12.9,63.8 12,65 C11.1,66.2 9,68.6 8.8,69.7 C8.6,70.8 9.6,72 9.6,72 L3.9,82.3 C3.9,82.3 6.4,85.2 12.5,85.6 C18.6,86 19,84.3 26.8,86.4 C34.6,88.5 39,100.3 54.3,98.4 C54.3,98.4 52.3,92.2 49.8,88.5 C47.3,84.8 44.4,80.7 44.4,80.7 C44.6,79.6 45.8,76.1 45,75.3 C44.5,74.8 44,74.4 43.5,73.9 C43.9,73 44.4,72.1 44.4,71.1 C44.4,70.2 44,69.1 44.3,68.2 C44.5,67.6 45.1,67.2 45.7,67.2 C46.5,67.2 47,67.9 47.8,68.1 C48.6,68.3 49.9,68.2 50.7,68.2 C51.6,68.2 52.4,68.9 53.2,69.1 C55.3,69.8 57.6,69.5 59.1,67.8 C60.7,66 59.4,64.2 59.4,64.2 C59.4,64.2 58.2,62.7 58.2,61.8 C58.2,60.9 58.9,60.2 58.9,60.2 L58.9,60.1 L59.2,60.1 C59.9,60.1 60.5,59.6 60.5,59.1 C60.5,58.9 60.5,58.8 60.4,58.7 C60.9,58.8 61.6,58.9 61.7,58.9 C62.5,59.1 63.2,59.3 63.9,59.7 C65.3,60.5 66.2,61.9 66.6,63.4 C66.7,63.9 67.3,65.6 66.9,66 C66.6,66.3 66.5,67.1 66.5,67.5 C66.5,68.3 66.8,69.2 67.3,69.8 C67.4,70 67.9,70.3 68,70.5 C69.2,75.6 69.6,81.6 76.3,82.1 C79.1,82.3 80.7,80.8 80.7,80.8 C80.7,80.8 82.5,79.7 83.1,76.7 C83.7,73.7 83.8,70.2 83.8,70.2 C83.8,70.2 84.3,68.5 79.5,68.3 L79.5,68.3 Z M37.6,7.4 L36.5,7.4 L36.5,7.3 C36.7,7.4 37.1,7.4 37.6,7.4 L37.6,7.4 Z M30.1,7.9 C30.4,7.8 32.6,7.5 33.5,7.5 L33.5,7.7 C33.2,7.7 32.8,7.8 32.5,7.8 C30.9,8 29.2,8.4 27.6,9 C28.4,8.5 29.2,8 30.1,7.9 L30.1,7.9 Z M24.6,8.2 C26.2,7.4 27.5,7.3 29.3,7.1 C27.9,7.2 26.2,9.6 24.7,9.1 C24.3,8.9 24.1,8.5 24.6,8.2 L24.6,8.2 Z M41,7.6 L41.4,7.6 L41.4,7.6 L41,7.6 L41,7.6 Z M42.1,6.5 C41.3,6.4 39.9,6 39.1,6.3 C40.4,5.9 41.6,5.4 42.9,5.1 C43.6,5 44.3,4.9 45,5 C46,5.2 46.1,5.9 45.2,6.4 L45.1,6.4 C44.2,6.9 43.1,6.6 42.1,6.5 L42.1,6.5 Z" id="Shape" fill-opacity="0.05" fill="#000000"></path>
                <path d="M78.5,67.3 C73.7,67 74.1,68.9 74.1,68.9 L74.3,73.5 C74.3,73.5 74.3,75.9 72.9,75.8 C71.5,75.7 71.1,73 71.1,73 L70,68.4 C70,68.3 70.1,68.1 70.1,68 C70.2,67.7 70.2,67.3 70.1,67 C70,66.3 69.9,65.5 69.4,64.9 C69.4,64.9 68.6,64.4 68.6,64.5 C68.1,61.1 66.4,57.7 62.9,56.7 C62.7,56.6 60.4,56.2 59.3,56 C59.4,55.7 59.6,55.4 59.7,55.1 C60,53.9 59.3,52.8 58.9,51.8 C58.6,50.8 58.7,49.9 59.9,49.8 C61,49.7 63,50.8 63.6,50.6 C64.3,50.5 65.1,49.9 65.1,49.1 C65.1,48.3 63.9,46.6 63.9,46.6 C63.9,46.6 62.3,43.4 61.8,42 C61.3,40.6 59.5,39.3 59.5,39.3 C59.5,39.3 57.7,38 57.9,37.1 C58.1,36.2 58.8,35.9 59.1,35 C60.1,35.1 61.2,35.4 62,35.5 C64.9,35.9 68.7,36.7 71,36.2 C71,36.2 72.2,36.1 71,35.2 C69.8,34.3 66.9,31.5 66,30.5 C65.1,29.5 61.9,27.4 61.3,26.1 C59.4,22.2 58.9,17.5 55.7,14.2 C53.4,11.8 50.5,9.9 47.5,8.6 C48.6,8.8 49.7,8.9 50.8,8.9 L51.2,8.9 L51.2,8 C48.4,8.1 45.2,7.4 42.9,6.8 C43.4,6.8 43.9,6.7 44.5,6.5 C45.5,6.2 47.4,5.4 47,4 C46.5,2.1 43.2,2.7 41.9,2.9 C39.4,3.3 37.1,4.5 34.9,5.7 C34.6,5.3 34.1,5.2 33.5,5.3 C33.1,5.4 32.8,5.6 32.6,5.8 C32.2,5.6 30.9,5.1 27.7,5.1 C25.7,5.1 18.8,7.2 22.4,9.5 C20.9,9.9 19.2,10.3 18,10.4 L18.1,11.3 C18.8,11.2 19.6,11.1 20.5,10.9 C18,12.4 15.8,14.3 13.9,16.5 C11.9,18.8 10.8,21.9 10.4,24.8 C9.9,28.4 10.9,32 10.7,35.6 C10.5,37.5 9.5,38.4 8.5,39.9 C7.5,41.4 7.1,43.1 6.1,44.6 C5.3,46 4,47 2.9,48.2 C2.5,48.6 2.6,48.9 2.9,49 L3.3,49 C4.1,48.9 4.8,48.5 5.5,48.3 C6.6,48 7.7,47.7 8.7,47.3 C9.4,47 11.7,46.3 14.1,45.4 C14.2,46.3 14.3,47.3 14.5,47.9 C14.9,49.1 16.8,51.3 16.8,51.3 C16.8,51.3 18.6,52.9 18.7,55 C18.7,56.1 18.4,57 18,57.6 C17.4,57.2 15.8,56.6 14.4,58.4 C12.6,60.7 11.9,62.8 11,64 C10.1,65.2 8,67.6 7.8,68.7 C7.6,69.8 8.6,71 8.6,71 L2.9,81.3 C2.9,81.3 5.4,84.2 11.5,84.6 C17.6,85 18,83.3 25.8,85.4 C33.6,87.5 38,99.3 53.3,97.4 C53.3,97.4 51.3,91.2 48.8,87.5 C46.3,83.8 43.4,79.7 43.4,79.7 C43.6,78.6 44.8,75.1 44,74.3 C43.5,73.8 43,73.4 42.5,72.9 C42.9,72 43.4,71.1 43.4,70.1 C43.4,69.2 43,68.1 43.3,67.2 C43.5,66.6 44.1,66.2 44.7,66.2 C45.5,66.2 46,66.9 46.8,67.1 C47.6,67.3 48.9,67.2 49.7,67.2 C50.6,67.2 51.4,67.9 52.2,68.1 C54.3,68.8 56.6,68.5 58.1,66.8 C59.7,65 58.4,63.2 58.4,63.2 C58.4,63.2 57.2,61.7 57.2,60.8 C57.2,59.9 57.9,59.2 57.9,59.2 L57.9,59.1 L58.2,59.1 C58.9,59.1 59.5,58.6 59.5,58.1 C59.5,57.9 59.5,57.8 59.4,57.7 C59.9,57.8 60.6,57.9 60.7,57.9 C61.5,58.1 62.2,58.3 62.9,58.7 C64.3,59.5 65.2,60.9 65.6,62.4 C65.7,62.9 66.3,64.6 65.9,65 C65.6,65.3 65.5,66.1 65.5,66.5 C65.5,67.3 65.8,68.2 66.3,68.8 C66.4,69 66.9,69.3 67,69.5 C68.2,74.6 68.6,80.6 75.3,81.1 C78.1,81.3 79.7,79.8 79.7,79.8 C79.7,79.8 81.5,78.7 82.1,75.7 C82.7,72.7 82.8,69.2 82.8,69.2 C82.8,69.2 83.3,67.5 78.5,67.3 L78.5,67.3 Z M36.6,6.4 L35.5,6.4 L35.5,6.3 C35.7,6.4 36.1,6.4 36.6,6.4 L36.6,6.4 Z M29.1,6.9 C29.4,6.8 31.6,6.5 32.5,6.5 L32.5,6.7 C32.2,6.7 31.8,6.8 31.5,6.8 C29.9,7 28.2,7.4 26.6,8 C27.4,7.5 28.2,7 29.1,6.9 L29.1,6.9 Z M23.6,7.2 C25.2,6.4 26.5,6.3 28.3,6.1 C26.9,6.2 25.2,8.6 23.7,8.1 C23.3,7.9 23.1,7.5 23.6,7.2 L23.6,7.2 Z M40,6.6 L40.4,6.6 L40.4,6.6 L40,6.6 L40,6.6 Z M41.1,5.5 C40.3,5.4 38.9,5 38.1,5.3 C39.4,4.9 40.6,4.4 41.9,4.1 C42.6,4 43.3,3.9 44,4 C45,4.2 45.1,4.9 44.2,5.4 L44.1,5.4 C43.2,5.9 42.1,5.6 41.1,5.5 L41.1,5.5 Z" id="Shape" fill="#EDEDED"></path>
                <path d="M76.5,65.3 C71.7,65 72.1,66.9 72.1,66.9 L72.3,71.5 C72.3,71.5 72.3,73.9 70.9,73.8 C69.5,73.7 69.1,71 69.1,71 L68,66.4 C68,66.3 68.1,66.1 68.1,66 C68.2,65.7 68.2,65.3 68.1,65 C68,64.3 67.9,63.5 67.4,62.9 C67.4,62.9 66.6,62.4 66.6,62.5 C66.1,59.1 64.4,55.7 60.9,54.7 C60.7,54.6 58.4,54.2 57.3,54 C57.4,53.7 57.6,53.4 57.7,53.1 C58,51.9 57.3,50.8 56.9,49.8 C56.6,48.8 56.7,47.9 57.9,47.8 C59,47.7 61,48.8 61.6,48.6 C62.3,48.5 63.1,47.9 63.1,47.1 C63.1,46.3 61.9,44.6 61.9,44.6 C61.9,44.6 60.3,41.4 59.8,40 C59.3,38.6 57.5,37.3 57.5,37.3 C57.5,37.3 55.7,36 55.9,35.1 C56.1,34.2 56.8,33.9 57.1,33 C58.1,33.1 59.2,33.4 60,33.5 C62.9,33.9 66.7,34.7 69,34.2 C69,34.2 70.2,34.1 69,33.2 C67.8,32.3 64.9,29.5 64,28.5 C63.1,27.5 59.9,25.4 59.3,24.1 C57.4,20.2 56.9,15.5 53.7,12.2 C51.4,9.8 48.5,7.9 45.5,6.6 C46.6,6.8 47.7,6.9 48.8,6.9 L49.2,6.9 L49.2,6 C46.4,6.1 43.2,5.4 40.9,4.8 C41.4,4.8 41.9,4.7 42.5,4.5 C43.5,4.2 45.4,3.4 45,2 C44.5,0.1 41.2,0.7 39.9,0.9 C37.4,1.3 35.1,2.5 32.9,3.7 C32.6,3.3 32.1,3.2 31.5,3.3 C31.1,3.4 30.8,3.6 30.6,3.8 C30.2,3.6 28.9,3.1 25.7,3.1 C23.7,3.1 16.8,5.2 20.4,7.5 C18.9,7.9 17.2,8.3 16,8.4 L16.1,9.3 C16.8,9.2 17.6,9.1 18.5,8.9 C16,10.4 13.8,12.3 11.9,14.5 C9.9,16.8 8.8,19.9 8.4,22.8 C7.9,26.4 8.9,30 8.7,33.6 C8.5,35.5 7.5,36.4 6.5,37.9 C5.5,39.4 5.1,41.1 4.1,42.6 C3.3,44 2,45 0.9,46.2 C0.5,46.6 0.6,46.9 0.9,47 L1.3,47 C2.1,46.9 2.8,46.5 3.5,46.3 C4.6,46 5.7,45.7 6.7,45.3 C7.4,45 9.7,44.3 12.1,43.4 C12.2,44.3 12.3,45.3 12.5,45.9 C12.9,47.1 14.8,49.3 14.8,49.3 C14.8,49.3 16.6,50.9 16.7,53 C16.7,54.1 16.4,55 16,55.6 C15.4,55.2 13.8,54.6 12.4,56.4 C10.6,58.7 9.9,60.8 9,62 C8.1,63.2 6,65.6 5.8,66.7 C5.6,67.8 6.6,69 6.6,69 L0.9,79.3 C0.9,79.3 3.4,82.2 9.5,82.6 C15.6,83 16,81.3 23.8,83.4 C31.6,85.5 36,97.3 51.3,95.4 C51.3,95.4 49.3,89.2 46.8,85.5 C44.3,81.8 41.4,77.7 41.4,77.7 C41.6,76.6 42.8,73.1 42,72.3 C41.5,71.8 41,71.4 40.5,70.9 C40.9,70 41.4,69.1 41.4,68.1 C41.4,67.2 41,66.1 41.3,65.2 C41.5,64.6 42.1,64.2 42.7,64.2 C43.5,64.2 44,64.9 44.8,65.1 C45.6,65.3 46.9,65.2 47.7,65.2 C48.6,65.2 49.4,65.9 50.2,66.1 C52.3,66.8 54.6,66.5 56.1,64.8 C57.7,63 56.4,61.2 56.4,61.2 C56.4,61.2 55.2,59.7 55.2,58.8 C55.2,57.9 55.9,57.2 55.9,57.2 L55.9,57.1 L56.2,57.1 C56.9,57.1 57.5,56.6 57.5,56.1 C57.5,55.9 57.5,55.8 57.4,55.7 C57.9,55.8 58.6,55.9 58.7,55.9 C59.5,56.1 60.2,56.3 60.9,56.7 C62.3,57.5 63.2,58.9 63.6,60.4 C63.7,60.9 64.3,62.6 63.9,63 C63.6,63.3 63.5,64.1 63.5,64.5 C63.5,65.3 63.8,66.2 64.3,66.8 C64.4,67 64.9,67.3 65,67.5 C66.2,72.6 66.6,78.6 73.3,79.1 C76.1,79.3 77.7,77.8 77.7,77.8 C77.7,77.8 79.5,76.7 80.1,73.7 C80.7,70.7 80.8,67.2 80.8,67.2 C80.8,67.2 81.3,65.5 76.5,65.3 L76.5,65.3 Z M34.6,4.4 L33.5,4.4 L33.5,4.3 C33.7,4.4 34.1,4.4 34.6,4.4 L34.6,4.4 Z M27.1,4.9 C27.4,4.8 29.6,4.5 30.5,4.5 L30.5,4.7 C30.2,4.7 29.8,4.8 29.5,4.8 C27.9,5 26.2,5.4 24.6,6 C25.4,5.5 26.2,5 27.1,4.9 L27.1,4.9 Z M21.6,5.2 C23.2,4.4 24.5,4.3 26.3,4.1 C24.9,4.2 23.2,6.6 21.7,6.1 C21.3,5.9 21.1,5.5 21.6,5.2 L21.6,5.2 Z M38,4.6 L38.4,4.6 L38.4,4.6 L38,4.6 L38,4.6 Z M39.1,3.5 C38.3,3.4 36.9,3 36.1,3.3 C37.4,2.9 38.6,2.4 39.9,2.1 C40.6,2 41.3,1.9 42,2 C43,2.2 43.1,2.9 42.2,3.4 L42.1,3.4 C41.2,3.9 40.1,3.6 39.1,3.5 L39.1,3.5 Z" id="Shape" fill="#000000"></path>
            </g>
        </g>
    </g>
</svg>
